icons/svg/source-pull.svg

﻿<?xml version="1.0" encoding="utf-8"?>
<!DOCTYPE svg PUBLIC "-//W3C//DTD SVG 1.1//EN" "http://www.w3.org/Graphics/SVG/1.1/DTD/svg11.dtd">
<svg xmlns="http://www.w3.org/2000/svg" xmlns:xlink="http://www.w3.org/1999/xlink" version="1.1" baseProfile="full" width="24" height="24" viewBox="0 0 24.00 24.00" enable-background="new 0 0 24.00 24.00" xml:space="preserve">
	<path fill="#000000" fill-opacity="1" stroke-width="1.33333" stroke-linejoin="round" d="M 6,2C 8.20914,2 10,3.79086 10,6C 10,7.86384 8.72523,9.42994 7,9.87398L 7,14.126C 8.72522,14.5701 10,16.1362 10,18C 10,20.2091 8.20914,22 6,22C 3.79086,22 2,20.2091 2,18C 2,16.1362 3.27477,14.5701 5,14.126L 5,9.87398C 3.27477,9.42994 2,7.86384 2,6C 2,3.79086 3.79086,2 6,2 Z M 6,4.00001C 4.89543,4.00001 4,4.89544 4,6.00001C 4,7.10458 4.89543,8.00001 6,8.00001C 7.10457,8.00001 8,7.10458 8,6.00001C 8,4.89544 7.10457,4.00001 6,4.00001 Z M 6,16C 4.89543,16 4,16.8954 4,18C 4,19.1046 4.89543,20 6,20C 7.10457,20 8,19.1046 8,18C 8,16.8954 7.10457,16 6,16 Z M 22,18C 22,20.2091 20.2091,22 18,22C 15.7909,22 14,20.2091 14,18C 14,16.1362 15.2748,14.5701 17,14.126L 17,7L 15,7.00001L 15,10.25L 10.75,6L 15,1.75001L 15,5L 17,4.99999C 18.1046,4.99999 19,5.89543 19,7L 19,14.126C 20.7252,14.5701 22,16.1362 22,18 Z M 18,16C 16.8954,16 16,16.8954 16,18C 16,19.1046 16.8954,20 18,20C 19.1046,20 20,19.1046 20,18C 20,16.8954 19.1046,16 18,16 Z "/>
</svg>

<svg xmlns="http://www.w3.org/2000/svg" version="1.1" baseProfile="full" width="24" height="24" viewBox="0 0 24.00 24.00" xml:space="preserve"><path fill="#000" fill-opacity="1" stroke-width="1.333" stroke-linejoin="round" d="M6 2c2.21 0 4 1.79 4 4 0 1.864-1.275 3.43-3 3.874v4.252c1.725.444 3 2.01 3 3.874 0 2.21-1.79 4-4 4s-4-1.79-4-4c0-1.864 1.275-3.43 3-3.874V9.874C3.275 9.43 2 7.864 2 6c0-2.21 1.79-4 4-4zm0 2c-1.105 0-2 .895-2 2s.895 2 2 2 2-.895 2-2-.895-2-2-2zm0 12c-1.105 0-2 .895-2 2s.895 2 2 2 2-.895 2-2-.895-2-2-2zm16 2c0 2.21-1.79 4-4 4s-4-1.79-4-4c0-1.864 1.275-3.43 3-3.874V7h-2v3.25L10.75 6 15 1.75V5h2c1.105 0 2 .895 2 2v7.126c1.725.444 3 2.01 3 3.874zm-4-2c-1.105 0-2 .895-2 2s.895 2 2 2 2-.895 2-2-.895-2-2-2z"/></svg>
